src/assets/sticker/singapore.svg

<svg width="100" height="100" viewBox="0 0 100 100" fill="none" xmlns="http://www.w3.org/2000/svg">
<g id="singapore" clip-path="url(#clip0_2005_97)">
<g id="Frame 1">
<path id="Union" d="M87.4259 11.7963H14.3704C7.42591 11.7963 1.7963 17.4259 1.7963 24.3704V78.2594C1.7963 85.2039 7.4259 90.8335 14.3704 90.8335H87.4259C94.3704 90.8335 100 85.2039 100 78.2594V24.3704C100 17.426 94.3704 11.7963 87.4259 11.7963Z" fill="#605F5E" fill-opacity="0.3"/>
<path id="Union_2" d="M85.6296 10H12.5741C5.62962 10 0 15.6296 0 22.5741V76.4631C0 83.4076 5.6296 89.0372 12.5741 89.0372H85.6296C92.5741 89.0372 98.2037 83.4076 98.2037 76.4631V22.5741C98.2037 15.6296 92.5741 10 85.6296 10Z" fill="#F5F1EE"/>
<g id="flag-container">
<g clip-path="url(#clip1_2005_97)">
<g id="Singapore (SG)" clip-path="url(#clip2_2005_97)">
<g id="Clip path group">
<mask id="mask0_2005_97" style="mask-type:luminance" maskUnits="userSpaceOnUse" x="9" y="20" width="80" height="60">
<g id="a">
<path id="Vector" d="M9 20H89V80H9V20Z" fill="white"/>
</g>
</mask>
<g mask="url(#mask0_2005_97)">
<g id="Group">
<path id="Vector_2" fill-rule="evenodd" clip-rule="evenodd" d="M6.5 20H96.5V80H6.5V20Z" fill="white"/>
<path id="Vector_3" fill-rule="evenodd" clip-rule="evenodd" d="M6.5 20H96.5V50H6.5V20Z" fill="#DF0000"/>
<path id="Vector_4" fill-rule="evenodd" clip-rule="evenodd" d="M27.25 25.025C24.8823 25.5339 22.7617 26.8418 21.2443 28.7293C19.7269 30.6168 18.905 32.9688 18.9167 35.3906C18.9285 37.8124 19.773 40.1564 21.3087 42.0291C22.8443 43.9018 24.9774 45.1891 27.35 45.675C25.9908 46.0683 24.5674 46.1894 23.1613 46.0314C21.7553 45.8734 20.3942 45.4393 19.1562 44.7542C17.9183 44.069 16.8278 43.1462 15.9472 42.0386C15.0667 40.9311 14.4135 39.6606 14.025 38.3C13.2535 35.5651 13.5962 32.636 14.9782 30.1531C16.3602 27.6701 18.6691 25.8354 21.4 25.05C23.4 24.475 25.25 24.4625 27.2625 25.025H27.25Z" fill="white"/>
<path id="Vector_5" fill-rule="evenodd" clip-rule="evenodd" d="M25.625 33.75L26.2375 35.625L24.6125 34.475L23.0125 35.65L23.6 33.75L22 32.5875L23.9875 32.5625L24.6125 30.6875L25.2375 32.5625H27.2125L25.625 33.75ZM27.8125 40.25L28.4375 42.1375L26.8125 40.9875L25.2 42.15L25.8 40.2625L24.2 39.0875L26.1875 39.075L26.8 37.1875L27.425 39.0625H29.425L27.8125 40.25ZM35.125 40.2L35.7375 42.1L34.1125 40.9375L32.5125 42.1L33.1 40.2125L31.5 39.05L33.4875 39.025L34.1125 37.15L34.7375 39.025H36.7125L35.125 40.2ZM37.3 33.75L37.9125 35.6375L36.2875 34.4875L34.6875 35.65L35.2875 33.7625L33.675 32.5875L35.675 32.575L36.275 30.6875L36.9 32.5625H38.9L37.3 33.75ZM31.5125 29.4625L32.1375 31.3625L30.5125 30.2L28.9 31.375L29.5 29.475L27.9 28.3L29.875 28.2875L30.5 26.4L31.125 28.275H33.125L31.5125 29.4625Z" fill="white"/>
</g>
</g>
</g>
</g>
<g id="filter" style="mix-blend-mode:screen">
<rect x="10.7778" y="20.7778" width="76.6481" height="57.4816" fill="#414141"/>
</g>
</g>
</g>
</g>
</g>
<defs>
<clipPath id="clip0_2005_97">
<rect width="100" height="100" fill="white"/>
</clipPath>
<clipPath id="clip1_2005_97">
<rect x="10.7778" y="20.7778" width="76.6421" height="57.4816" rx="4" fill="white"/>
</clipPath>
<clipPath id="clip2_2005_97">
<rect width="80" height="60" fill="white" transform="translate(9 20)"/>
</clipPath>
</defs>
</svg>

<svg xmlns="http://www.w3.org/2000/svg" width="100" height="100" fill="none" xmlns:v="https://vecta.io/nano"><g clip-path="url(#B)"><path d="M87.426 11.796H14.37c-6.944 0-12.574 5.63-12.574 12.574v53.889c0 6.945 5.63 12.574 12.574 12.574h73.056c6.945 0 12.574-5.63 12.574-12.574V24.37c0-6.944-5.63-12.574-12.574-12.574z" fill="#605f5e" fill-opacity=".3"/><path d="M85.63 10H12.574C5.63 10 0 15.63 0 22.574v53.889c0 6.945 5.63 12.574 12.574 12.574H85.63c6.945 0 12.574-5.63 12.574-12.574V22.574C98.204 15.63 92.574 10 85.63 10z" fill="#f5f1ee"/><g clip-path="url(#C)"><g clip-path="url(#D)"><mask id="A" maskUnits="userSpaceOnUse" x="9" y="20" width="80" height="60"><path d="M9 20H89V80H9V20Z" fill="#fff"/></mask><g mask="url(#A)"><path fill-rule="evenodd" d="M6.5 20h90v60h-90V20z" fill="#fff"/><path fill-rule="evenodd" d="M6.5 20h90v30h-90V20z" fill="#df0000"/><path fill-rule="evenodd" d="M27.25 25.025a10.55 10.55 0 0 0 .1 20.65A10.75 10.75 0 0 1 14.025 38.3 10.75 10.75 0 0 1 21.4 25.05a10.28 10.28 0 0 1 5.863-.025h-.012zm-1.625 8.725l.613 1.875-1.625-1.15-1.6 1.175.588-1.9-1.6-1.163 1.988-.025.625-1.875.625 1.875h1.975l-1.587 1.188zm2.188 6.5l.625 1.888-1.625-1.15L25.2 42.15l.6-1.887-1.6-1.175 1.988-.012.613-1.888.625 1.875h2l-1.613 1.188zm7.313-.05l.612 1.9-1.625-1.163-1.6 1.163.587-1.888-1.6-1.163 1.987-.025.625-1.875.625 1.875h1.975L35.125 40.2zm2.175-6.45l.613 1.888-1.625-1.15-1.6 1.163.6-1.887-1.613-1.175 2-.012.6-1.888.625 1.875h2l-1.6 1.188zm-5.787-4.288l.625 1.9-1.625-1.163-1.613 1.175.6-1.9-1.6-1.175 1.975-.012.625-1.888.625 1.875h2l-1.613 1.188z" fill="#fff"/></g></g><g style="mix-blend-mode:screen"><path fill="#414141" d="M10.778 20.778h76.648v57.482H10.778z"/></g></g></g><defs><clipPath id="B"><path fill="#fff" d="M0 0h100v100H0z"/></clipPath><clipPath id="C"><rect x="10.778" y="20.778" width="76.642" height="57.482" rx="4" fill="#fff"/></clipPath><clipPath id="D"><path fill="#fff" transform="translate(9 20)" d="M0 0h80v60H0z"/></clipPath></defs></svg>
